!!!!SEGMENT:Tenjinsama.krn
!!!OTL: 天神さま
!!!OPR:Eiga Banso Kyokusyu,jidai-geki,kouhen
!!!YOY:1928
!!!ONB:Sairei
**kern
*clefG2
*k[f#]
*G:
*M2/4
8gg
=1
4ff#
4ee
=2
4ff#
8r
8gg
=3
4ff#
4ee
=4
4ff#
4r
=5
4gg
4ff#
=6
4ee
4ff#
=7
4ee
4cc
=8
4b
4cc
=9
4b
4g
=10
4f#
8cc#XL
8bJ
=11
8gL
16gL
16gJJ
8f#L
8eJ
=12
8f#L
8aJ
8.bL
16gJk
=13
4f#
8bL
8bJ
=14
4f#
8bL
8bJ
=15
8f#L
8f#J
8r
8dd
=16
4ee
8ffnL
8ffJ
=17
8ffnL
8ee
8ee
8ccJ
=18
4b
4a
=19
4b
4bb
=20
4gg
4ff#
=21
4ee
4ff#
=22
4ee
4cc
=23
4b
4cc#X
=24
4b
4g
=25
4f#X
8.eeL
16bJk
=26
8eeL
8ff#
8gg
8eeJ
=27
8ff#L
8ff#J
8f#L
8ff#J
=28||
*M3/4
8BL
8f#J
4f#
4r
=29||
*M2/4
4r
4ff#
=30
2ff#
=31
4r
4ff#
=32
2ff#
=33
4ee
4cc
=34
2cc
=35
4b
4cc#X
=36
4dd
4dd
=37
4cc#X
4b
=38
4g
4g
=39
4b
4g
=40
4f#
8r
==
*-
